X:1
T:Title
L:1/8
M:4/4
K:G
V:1 treble nm="Grand Piano"
V:1
 z4 z2[Q:1/4=100] A2 | G2 F2 G2 A2 | A8- | A2 BA AGGF | GA/B/ AG GFFE | E8- | E2 G2 F2 ED | %7
 F2 G2 A4- | A6 G2 | FEED EFGF | FEED D2 GF | FEED EFGF | FEED D4- | D6 z2 |] %14

